packages/icons/general/EyeOff.dark.svg

<svg fill="none" viewBox="0 0 18 18" xmlns="http://www.w3.org/2000/svg"><path d="m16.3935 5.70754.015.01094-.335.45193c-.6938.9363-1.4169 1.72225-2.1687 2.35582l1.5013 2.60017c-.5381.3106-1.2262.1263-1.5368-.4118l-.8706-1.5078c-.6666.4413-1.3543.76904-2.0626.9819l.4263 2.4175c-.6119.1079-1.1954-.3007-1.3033-.9126l-.22376-1.2689c-.30172.0393-.60567.0589-.90993.0588-.43749 0-.86799-.0399-1.29143-.1195l-.43084 2.4435-.0183-.0034c-.59569-.115-.99308-.6826-.89731-1.2817l.00304-.0182.25356-1.438c-.67721-.24452-1.33509-.59597-1.97328-1.05322l-.08311.14694-1.46007 2.52898-.01604-.0095c-.52041-.3118-.69969-.9811-.40482-1.5113l.00909-.016.89395-1.54839.17325-.30631c-.63506-.57045-1.24926-1.25142-1.84222-2.04166l-.06356-.08526-.33494-.45193c.49799-.36904 1.19953-.2729 1.57987.21649l.06798.08712.04807.06117.04389.05535.03971.04957.03551.04379.02282.02774.02069.02478.00766.00911c1.74326 2.0571 3.61143 3.0648 5.61683 3.0648 1.99029 0 3.84539-.99257 5.57739-3.01843l.0591-.06966.0183-.02197.0248-.03036.0231-.02857.0306-.03823.0457-.05765.0649-.08287.0583-.0749c.3727-.48041 1.0546-.58271 1.5509-.23885z" fill="#fff" fill-opacity=".78"/></svg>

<svg viewBox="0 0 18 18" fill="none" xmlns="http://www.w3.org/2000/svg">
<path d="M16.3935 5.70754L16.4085 5.71848L16.0735 6.17041C15.3797 7.10671 14.6566 7.89266 13.9048 8.52623L15.4061 11.1264C14.868 11.437 14.1799 11.2527 13.8693 10.7146L12.9987 9.2068C12.3321 9.6481 11.6444 9.97584 10.9361 10.1887L11.3624 12.6062C10.7505 12.7141 10.167 12.3055 10.0591 11.6936L9.83534 10.4247C9.53362 10.464 9.22967 10.4836 8.92541 10.4835C8.48792 10.4835 8.05742 10.4436 7.63398 10.364L7.20314 12.8075L7.18484 12.8041C6.58915 12.6891 6.19176 12.1215 6.28753 11.5224L6.29057 11.5042L6.54413 10.0662C5.86692 9.82168 5.20904 9.47023 4.57085 9.01298L4.48774 9.15992L3.02767 11.6889L3.01163 11.6794C2.49122 11.3676 2.31194 10.6983 2.60681 10.1681L2.6159 10.1521L3.50985 8.60371L3.6831 8.2974C3.04804 7.72695 2.43384 7.04598 1.84088 6.25574L1.77732 6.17048L1.44238 5.71855C1.94037 5.34951 2.64191 5.44565 3.02225 5.93504L3.09023 6.02216L3.1383 6.08333L3.18219 6.13868L3.2219 6.18825L3.25741 6.23204L3.28023 6.25978L3.30092 6.28456L3.30858 6.29367C5.05184 8.35077 6.92001 9.35847 8.92541 9.35847C10.9157 9.35847 12.7708 8.3659 14.5028 6.34004L14.5619 6.27038L14.5802 6.24841L14.605 6.21805L14.6281 6.18948L14.6587 6.15125L14.7044 6.0936L14.7693 6.01073L14.8276 5.93583C15.2003 5.45542 15.8822 5.35312 16.3785 5.69698L16.3935 5.70754Z" fill="white" fill-opacity="0.78"/>
</svg>
